actions/22/view-time-schedule-baselined.svg

<svg xmlns="http://www.w3.org/2000/svg" viewBox="0 0 22 22">
  <defs id="defs3051">
    <style type="text/css" id="current-color-scheme">.ColorScheme-Text {color:#fcfcfc;}.ColorScheme-Highlight {color:#3daee9;}</style>
  </defs>
 <path 
     style="fill:currentColor;fill-opacity:1;stroke:none" 
     d="m 3,3 v 13 c 0,0 0,3 3,3 3,0 7,0 10,0 3,0 3,-3 3,-3 V 3 H 17 V 6 H 15 V 3 H 7 V 6 H 5 V 3 Z m 1,4 h 14 v 9 c 0,0 0,2 -2,2 -2,0 -8,0 -10,0 -2,0 -2,-2 -2,-2 z m 1,1 v 3 h 1 v -1 h 4 v 1 h 1 V 8 H 10 V 9 H 6 V 8 Z m 5,6 v 3 h 1 v -1 h 4 v 1 h 1 v -3 h -1 v 1 h -4 v -1 z"
     class="ColorScheme-Text"
     />
 <path 
     style="fill:currentColor;fill-opacity:1;stroke:none" 
     d="m 433.71432,532.79071 0.99995,0 c 10e-6,0 2e-5,10e-6 2e-5,3e-5 l 0,10.99994 c 0,2e-5 -1e-5,3e-5 -2e-5,3e-5 l -0.99995,0 c -10e-6,0 -3e-5,-10e-6 -3e-5,-3e-5 l 0,-10.99994 c 0,-2e-5 2e-5,-3e-5 3e-5,-3e-5 z"
     class="ColorScheme-Highlight"
     transform="translate(-421.71429,-525.79074)"
     />
</svg>

<svg xmlns="http://www.w3.org/2000/svg" viewBox="0 0 22 22">
  <defs id="defs3051">
    <style type="text/css" id="current-color-scheme">
      .ColorScheme-Text {
        color:#eff0f1;
      }
      .ColorScheme-Highlight {
        color:#3daee9;
      }
      </style>
  </defs>
 <path 
     style="fill:currentColor;fill-opacity:1;stroke:none" 
     d="M 3 3 L 3 19 L 19 19 L 19 3 L 17 3 L 17 6 L 15 6 L 15 3 L 7 3 L 7 6 L 5 6 L 5 3 L 3 3 z M 4 7 L 18 7 L 18 18 L 4 18 L 4 7 z M 5 8 L 5 11 L 6 11 L 6 10 L 10 10 L 10 11 L 11 11 L 11 8 L 10 8 L 10 9 L 6 9 L 6 8 L 5 8 z M 10 14 L 10 17 L 11 17 L 11 16 L 15 16 L 15 17 L 16 17 L 16 14 L 15 14 L 15 15 L 11 15 L 11 14 L 10 14 z "
     class="ColorScheme-Text"
     />
 <path 
     style="fill:currentColor;fill-opacity:1;stroke:none" 
     d="m 433.71432,532.79071 0.99995,0 c 10e-6,0 2e-5,10e-6 2e-5,3e-5 l 0,10.99994 c 0,2e-5 -1e-5,3e-5 -2e-5,3e-5 l -0.99995,0 c -10e-6,0 -3e-5,-10e-6 -3e-5,-3e-5 l 0,-10.99994 c 0,-2e-5 2e-5,-3e-5 3e-5,-3e-5 z"
     class="ColorScheme-Highlight"
     transform="translate(-421.71429,-525.79074)"
     />
</svg>
